X: 28964
T: Nancy's Garden
R: slip jig
M: 9/8
K: Dmajor
D2 B BAF EFA|d2d BA F2<E2|D2 B BAF EFA|dAg fdB AFE|
D2 B BAF EFA|d2d BA F2<E2|D2 B BAF EFA|dAg fdB ABd||
B2 f fdB ABd|ABg fdB ABd|B2 f fdB ABd|BAF AFE FAd|
B2 f fdB ABd|ABg fdB AFE|DFA Bdc Bge|f2f edB AFE||

